!!!COM: Bach, Johann Sebastian
!!!CDT: 1685/3//-1750/7/28/
!!!OTL@@DE: Dank sei Gott in der Hoehe
!!!OTL@EN:  Thanks be to God in the highest
!!!AGN: 4-Part Chorale
!!!SCT: BH 311
!!!SCT: BWV 287
!!!YEC: Copyright 2003 by Craig Stuart Sapp
!!!license: GNU General Public License (http://www.gnu.org/copyleft/gpl.html)
!!!SMA: 371 Bach Chorales, edited by Ludwig Erk, C.F. Peters
!!!PDT: 1850, 1865
!!!ONB: Harmony and Root analysis done manually by Craig Sapp
**kern	**kern	**kern	**kern	**root	**harm
!bass	!tenor	!alto	!soprno	!	!
*Iorgan	*Iorgan	*Iorgan	*Iorgan	*Iorgan	*
*clefF4	*clefF4	*clefG2	*clefG2	*	*
*M4/4	*M4/4	*M4/4	*M4/4	*M4/4	*M4/4
*met(C)	*met(C)	*met(C)	*met(C)	*met(C)	*met(C)
*MM60	*MM60	*MM60	*MM60	*MM60	*MM60
*k[b-]	*k[b-]	*k[b-]	*k[b-]	*k[b-]	*k[b-]
*>[A,A,B]	*>[A,A,B]	*>[A,A,B]	*>[A,A,B]	*>[A,A,B]	*>[A,A,B]
*>A	*>A	*>A	*>A	*>A	*>A
*F:	*F:	*F:	*F:	*F:	*F:
4E	4c	4g	4cc	4CC	Vb
=1	=1	=1	=1	=1	=1
8F	4c	8f	4a	4FF	I
8E-	.	8g	.	.	.
8D	4e-	4a	4cc	4AA	viiob/IV
8C	.	.	.	.	.
4BB-	4f	8b-	4dd	4BB-	IV
.	.	8a	.	.	.
4C	4en	8g	4cc	4CC	V
.	.	8a	.	.	.
=2	=2	=2	=2	=2	=2
4D	4f	8b-	2b-	4BB-	IVb
.	.	8a	.	.	.
4En	4c	4g	.	4CC	V7b
4F;	4c;	4f;	4a;	4FF;	I;
4F	4c	4f	4a	4FF	I
=3	=3	=3	=3	=3	=3
8B-	4c	4e	4g	4CC	V7d
8A	.	.	.	.	.
8G	4c	4f	4a	4FF	I
8F	.	.	.	.	.
4c	8c	4f	4g	2CC	V7
.	16B-	.	.	.	.
.	16A	.	.	.	.
4C	4B-	4e	4g	.	.
=4	=4	=4	=4	=4	=4
2.F;	2.A;	2.c;	2.f;	2.FF;	I;
=:|!	=:|!	=:|!	=:|!	=:|!	=:|!
*>B	*>B	*>B	*>B	*>B	*>B
8E	4G	8c	4g	4CC	Vb
8D	.	8d	.	.	.
=5	=5	=5	=5	=5	=5
8C	4c	4e	4g	4CC	V
8c	.	.	.	.	.
8B-	4F	4c	4a	4FF	I
8A	.	.	.	.	.
8G	8B-	4d	4b-	4GG	ii
8F	8A	.	.	.	.
4E	4G	4c	8cc	4CC	Vb
.	.	.	8b-	.	.
=6	=6	=6	=6	=6	=6
4F	8A	4.c	2a	4.FF	I
.	8G	.	.	.	.
8AA	4F	.	.	.	.
8BB-	.	8d	.	8BB-	IV7
4C;	4c;	4e;	4g;	4CC;	V;
*C:	*C:	*C:	*C:	*C:	*C:
4C	4c	4e	4g	4CC	I
!!linebreak: 2
=7	=7	=7	=7	=7	=7
8F	8c	4f	8a	8FF	IV
8E	8d	.	8bn	8BB	viiob
8D	4e	4g	4cc	4CC	I
8C	.	.	.	.	.
4F	4.d	4a	8dd	4DD	ii
.	.	.	8cc	.	.
4G	.	4g	4b	4GG	V7
.	16e	.	.	.	.
.	16f	.	.	.	.
=8	=8	=8	=8	=8	=8
2.C;	2.e;	2.g;	2.cc;	2.CC;	I;
*F:	*F:	*F:	*F:	*F:	*F:
4C	4G	4e	4cc	4CC	V
=9	=9	=9	=9	=9	=9
8F	4A	4c	4a	4FF	I
4E-	.	.	.	.	.
.	4A	4f	4cc	4FF	V7d/IV
16D	.	.	.	.	.
16C	.	.	.	.	.
8BB-	4B-	4f	4dd	4BB-	IV
8A	.	.	.	.	.
8G	4A	4e-	4cc	4FF#	viio7/II
8F#	.	.	.	.	.
=10	=10	=10	=10	=10	=10
8G	8B-	4.d	2b-	2GG	ii
8A	8c	.	.	.	.
8B-	4d	.	.	.	.
8c	.	8e	.	.	.
4d;	4d;	4f#;	4a;	4DD;	V/II;
8d	4fn	4d	4a	4DD	vi
8c	.	.	.	.	.
=11	=11	=11	=11	=11	=11
8B-	4c	4e	4g	4CC	V7d
8A	.	.	.	.	.
8G	4c	4f	4a	4FF	I
8F	.	.	.	.	.
4c	8c	4f	4g	2CC	V7
.	16B-	.	.	.	.
.	16A	.	.	.	.
4C	4B-	4e	4g	.	.
=12	=12	=12	=12	=12	=12
2.F;	2.A;	2.c;	2.f;	2.FF;	I;
==|!	==|!	==|!	==|!	==|!	==|!
*-	*-	*-	*-	*-	*-
!!chor2scor: -l 2 -s 0.6 -o %b.pmx
